O123(Test program)
(tool change to 3 mm Carbide Slot Cutter)
N10T4M06
N20G90G21G17G54
(Sketch)
N30G00X0.000Y0.000S7000.0M03
N40Z2.000
N50G01Z-1.667F200.00
N60X10.000Y0.000F840.00
N70X10.000Y10.000
N80X0.000Y10.000
N90X0.000Y0.000
N100G03X10.000Y0.000I5.000J0.000
N110G02X20.000Y0.000I5.000J0.000
N120G00Z5.000
N130X0.000Y0.000
N140Z2.000
N150G01Z-3.333F200.00
N160X10.000Y0.000F840.00
N170X10.000Y10.000
N180X0.000Y10.000
N190X0.000Y0.000
N200G03X10.000Y0.000I5.000J0.000
N210G02X20.000Y0.000I5.000J0.000
N220G00Z5.000
N230X0.000Y0.000
N240Z2.000
N250G01Z-5.000F200.00
N260X10.000Y0.000F840.00
N270X10.000Y10.000
N280X0.000Y10.000
N290X0.000Y0.000
N300G03X10.000Y0.000I5.000J0.000
N310G02X20.000Y0.000I5.000J0.000
N320G00Z5.000
N330M02

