(Created with emc2b post processor 2012/08/27 10:08)
(Feeds and Speeds set for machining Please select a material to machine)
(tool change to 6 mm Carbide Slot Cutter)
T2 M06 G43
G17 G90 G21
G00 Z5 S7000 M03
X1.36 Y0.911
Z7
G01 X1.36 Y0.911 Z5 F100
X1.36 Y-1.009 Z5 F199.99
X-0.659 Y-1.009 Z5
X-0.659 Y0.911 Z5
X1.36 Y0.911 Z5
X2.36 Y1.911 Z4.999
X2.36 Y-2.01 Z4.998
X-1.659 Y-2.01 Z5
X-1.659 Y1.911 Z5
X2.36 Y1.911 Z4.999
X2.626 Y2.177 Z4.982
X2.893 Y2.444 Z4.935
X3.16 Y2.711 Z4.86
X3.36 Y2.911 Z4.784
X3.36 Y2.417 Z4.866
X3.36 Y1.825 Z4.93
X3.36 Y1.134 Z4.97
X3.36 Y0.049 Z4.986
X3.36 Y-1.036 Z4.972
X3.36 Y-1.727 Z4.937
X3.36 Y-2.319 Z4.879
X3.36 Y-2.812 Z4.802
X3.36 Y-3.01 Z4.764
X2.866 Y-3.01 Z4.863
X2.373 Y-3.01 Z4.929
X1.781 Y-3.01 Z4.974
X0.893 Y-3.01 Z4.997
X-1.277 Y-3.01 Z4.992
X-2.066 Y-3.01 Z4.957
X-2.659 Y-3.01 Z4.894
X-2.659 Y-2.516 Z4.955
X-2.659 Y-1.924 Z4.991
X-2.659 Y1.628 Z4.998
X-2.659 Y2.318 Z4.971
X-2.659 Y2.812 Z4.923
X-2.659 Y2.911 Z4.908
X-2.165 Y2.911 Z4.96
X-1.474 Y2.911 Z4.992
X1.189 Y2.911 Z4.997
X1.978 Y2.911 Z4.971
X2.57 Y2.911 Z4.92
X3.063 Y2.911 Z4.845
X3.36 Y2.911 Z4.784
X3.626 Y3.177 Z4.653
X3.893 Y3.444 Z4.488
X4.16 Y3.711 Z4.283
X4.36 Y3.911 Z4.102
X4.36 Y3.514 Z4.268
X4.36 Y3.019 Z4.436
X4.36 Y2.524 Z4.563
X4.36 Y2.029 Z4.658
X4.36 Y1.534 Z4.727
X4.36 Y0.94 Z4.78
X4.36 Y0.148 Z4.809
X4.36 Y-0.544 Z4.799
X4.36 Y-1.237 Z4.758
X4.36 Y-1.93 Z4.674
X4.36 Y-2.425 Z4.585
X4.36 Y-2.821 Z4.49
X4.36 Y-3.217 Z4.372
X4.36 Y-3.613 Z4.229
X4.36 Y-4.01 Z4.053
X3.964 Y-4.01 Z4.245
X3.568 Y-4.01 Z4.401
X3.172 Y-4.01 Z4.531
X2.677 Y-4.01 Z4.654
X1.984 Y-4.01 Z4.776
X1.291 Y-4.01 Z4.849
X0.598 Y-4.01 Z4.886
X-0.293 Y-4.01 Z4.893
X-1.085 Y-4.01 Z4.863
X-1.679 Y-4.01 Z4.813
X-2.174 Y-4.01 Z4.748
X-2.669 Y-4.01 Z4.655
X-3.065 Y-4.01 Z4.559
X-3.461 Y-4.01 Z4.438
X-3.659 Y-4.01 Z4.367
X-3.659 Y-3.613 Z4.516
X-3.659 Y-3.217 Z4.634
X-3.659 Y-2.722 Z4.747
X-3.659 Y-2.128 Z4.843
X-3.659 Y-1.435 Z4.911
X-3.659 Y-0.544 Z4.949
X-3.659 Y0.346 Z4.953
X-3.659 Y1.237 Z4.923
X-3.659 Y1.93 Z4.867
X-3.659 Y2.524 Z4.784
X-3.659 Y3.019 Z4.684
X-3.659 Y3.514 Z4.547
X-3.659 Y3.911 Z4.406
X-3.164 Y3.911 Z4.565
X-2.867 Y3.911 Z4.643
X-2.372 Y3.911 Z4.744
X-1.778 Y3.911 Z4.828
X-1.085 Y3.911 Z4.885
X-0.194 Y3.911 Z4.913
X0.598 Y3.911 Z4.906
X1.291 Y3.911 Z4.872
X1.984 Y3.911 Z4.802
X2.578 Y3.911 Z4.706
X3.172 Y3.911 Z4.564
X3.667 Y3.911 Z4.405
X4.162 Y3.911 Z4.199
X4.36 Y3.911 Z4.102
X4.626 Y4.177 Z3.812
X4.826 Y4.377 Z3.553
X5.026 Y4.577 Z3.248
X5.226 Y4.777 Z2.887
X5.36 Y4.911 Z2.601
X5.36 Y4.613 Z2.896
X5.36 Y4.414 Z3.072
X5.36 Y4.018 Z3.359
X5.36 Y3.72 Z3.545
X5.36 Y3.323 Z3.746
X5.36 Y2.926 Z3.914
X5.36 Y2.43 Z4.081
X5.36 Y1.934 Z4.207
X5.36 Y1.339 Z4.313
X5.36 Y0.744 Z4.378
X5.36 Y0.049 Z4.407
X5.36 Y-0.644 Z4.385
X5.36 Y-1.14 Z4.337
X5.36 Y-1.537 Z4.283
X5.36 Y-2.033 Z4.185
X5.36 Y-2.529 Z4.051
X5.36 Y-3.025 Z3.876
X5.36 Y-3.521 Z3.65
X5.36 Y-3.819 Z3.485
X5.36 Y-4.117 Z3.294
X5.36 Y-4.414 Z3.072
X5.36 Y-4.712 Z2.805
X5.36 Y-4.91 Z2.601
X5.36 Y-5.01 Z2.484
X5.161 Y-5.01 Z2.717
X4.864 Y-5.01 Z3.021
X4.566 Y-5.01 Z3.27
X4.268 Y-5.01 Z3.485
X3.872 Y-5.01 Z3.725
X3.574 Y-5.01 Z3.877
X3.078 Y-5.01 Z4.084
X2.582 Y-5.01 Z4.245
X2.086 Y-5.01 Z4.37
X1.491 Y-5.01 Z4.475
X0.896 Y-5.01 Z4.541
X0.201 Y-5.01 Z4.573
X-0.393 Y-5.01 Z4.569
X-0.988 Y-5.01 Z4.531
X-1.484 Y-5.01 Z4.474
X-1.98 Y-5.01 Z4.39
X-2.377 Y-5.01 Z4.301
X-2.774 Y-5.01 Z4.189
X-3.27 Y-5.01 Z4.009
X-3.667 Y-5.01 Z3.832
X-4.063 Y-5.01 Z3.614
X-4.361 Y-5.01 Z3.42
X-4.659 Y-5.01 Z3.198
X-4.659 Y-4.712 Z3.438
X-4.659 Y-4.414 Z3.645
X-4.659 Y-4.017 Z3.878
X-4.659 Y-3.72 Z4.025
X-4.659 Y-3.224 Z4.226
X-4.659 Y-2.827 Z4.357
X-4.659 Y-2.43 Z4.46
X-4.659 Y-1.934 Z4.559
X-4.659 Y-1.339 Z4.643
X-4.659 Y-0.644 Z4.699
X-4.659 Y-0.049 Z4.713
X-4.659 Y0.545 Z4.704
X-4.659 Y1.24 Z4.654
X-4.659 Y1.835 Z4.577
X-4.659 Y2.331 Z4.482
X-4.659 Y2.728 Z4.384
X-4.659 Y3.026 Z4.295
X-4.659 Y3.422 Z4.152
X-4.659 Y3.918 Z3.929
X-4.659 Y4.216 Z3.767
X-4.659 Y4.514 Z3.578
X-4.659 Y4.811 Z3.364
X-4.659 Y4.911 Z3.281
X-4.262 Y4.911 Z3.566
X-3.964 Y4.911 Z3.743
X-3.567 Y4.911 Z3.943
X-3.171 Y4.911 Z4.109
X-2.675 Y4.911 Z4.272
X-2.278 Y4.911 Z4.375
X-1.881 Y4.911 Z4.458
X-1.286 Y4.911 Z4.547
X-0.691 Y4.911 Z4.597
X-0.095 Y4.911 Z4.619
X0.598 Y4.911 Z4.603
X1.292 Y4.911 Z4.544
X1.788 Y4.911 Z4.473
X2.284 Y4.911 Z4.375
X2.88 Y4.911 Z4.212
X3.376 Y4.911 Z4.026
X3.673 Y4.911 Z3.893
X4.07 Y4.911 Z3.684
X4.368 Y4.911 Z3.495
X4.665 Y4.911 Z3.276
X4.963 Y4.911 Z3.021
X5.26 Y4.911 Z2.711
X5.36 Y4.911 Z2.601
X5.493 Y5.044 Z2.261
X5.626 Y5.177 Z1.836 F100
X5.693 Y5.244 Z1.584
X5.76 Y5.311 Z1.271
X5.826 Y5.377 Z0.813
X5.893 Y5.444 Z0
X6.36 Y5.911 Z0 F199.99
X6.36 Y4.917 Z0
X6.36 Y4.718 Z0.873 F100
X6.36 Y4.619 Z1.159
X6.36 Y4.52 Z1.379
X6.36 Y4.42 Z1.566 F199.99
X6.36 Y4.222 Z1.865
X6.36 Y4.023 Z2.114
X6.36 Y3.824 Z2.333
X6.36 Y3.427 Z2.671
X6.36 Y3.129 Z2.877
X6.36 Y2.632 Z3.146
X6.36 Y2.235 Z3.314
X6.36 Y1.639 Z3.5
X6.36 Y1.142 Z3.606
X6.36 Y0.447 Z3.687
X6.36 Y-0.049 Z3.7
X6.36 Y-0.546 Z3.678
X6.36 Y-1.142 Z3.606
X6.36 Y-1.738 Z3.474
X6.36 Y-2.235 Z3.314
X6.36 Y-2.632 Z3.146
X6.36 Y-3.129 Z2.877
X6.36 Y-3.427 Z2.671
X6.36 Y-3.526 Z2.597
X6.36 Y-3.824 Z2.333
X6.36 Y-4.023 Z2.115
X6.36 Y-4.221 Z1.866
X6.36 Y-4.42 Z1.567
X6.36 Y-4.519 Z1.379
X6.36 Y-4.619 Z1.16 F100
X6.36 Y-4.718 Z0.875
X6.36 Y-4.917 Z0
X6.36 Y-6.01 Z0 F199.99
X5.366 Y-6.01 Z0
X5.267 Y-6.01 Z0.202 F100
X5.168 Y-6.01 Z0.845
X5.068 Y-6.01 Z1.15
X4.969 Y-6.01 Z1.395
X4.77 Y-6.01 Z1.775 F199.99
X4.572 Y-6.01 Z2.061
X4.373 Y-6.01 Z2.311
X4.174 Y-6.01 Z2.52
X3.876 Y-6.01 Z2.781
X3.578 Y-6.01 Z3.001
X3.28 Y-6.01 Z3.19
X2.982 Y-6.01 Z3.351
X2.486 Y-6.01 Z3.565
X1.989 Y-6.01 Z3.728
X1.492 Y-6.01 Z3.846
X0.996 Y-6.01 Z3.927
X0.499 Y-6.01 Z3.975
X-0.096 Y-6.01 Z3.991
X-0.593 Y-6.01 Z3.968
X-1.189 Y-6.01 Z3.901
X-1.685 Y-6.01 Z3.803
X-2.182 Y-6.01 Z3.669
X-2.579 Y-6.01 Z3.529
X-2.977 Y-6.01 Z3.353
X-3.374 Y-6.01 Z3.135
X-3.672 Y-6.01 Z2.937
X-3.97 Y-6.01 Z2.702
X-4.069 Y-6.01 Z2.619
X-4.367 Y-6.01 Z2.311
X-4.566 Y-6.01 Z2.075
X-4.665 Y-6.01 Z1.938
X-4.765 Y-6.01 Z1.779
X-4.963 Y-6.01 Z1.404
X-5.063 Y-6.01 Z1.16 F100
X-5.162 Y-6.01 Z0.87
X-5.261 Y-6.01 Z0.202
X-5.361 Y-6.01 Z0
X-5.659 Y-6.01 Z0 F199.99
X-5.659 Y-5.711 Z0
X-5.659 Y-5.513 Z0.966 F100
X-5.659 Y-5.413 Z1.266
X-5.659 Y-5.215 Z1.706
X-5.659 Y-5.115 Z1.887 F199.99
X-5.659 Y-4.917 Z2.182
X-5.659 Y-4.718 Z2.429
X-5.659 Y-4.42 Z2.74
X-5.659 Y-4.122 Z2.995
X-5.659 Y-3.725 Z3.273
X-5.659 Y-3.427 Z3.449
X-5.659 Y-3.129 Z3.599
X-5.659 Y-2.731 Z3.767
X-5.659 Y-2.235 Z3.932
X-5.659 Y-1.638 Z4.075
X-5.659 Y-1.142 Z4.158
X-5.659 Y-0.546 Z4.215
X-5.659 Y-0.049 Z4.23
X-5.659 Y0.447 Z4.221
X-5.659 Y1.043 Z4.171
X-5.659 Y1.539 Z4.093
X-5.659 Y1.837 Z4.033
X-5.659 Y2.334 Z3.903
X-5.659 Y2.831 Z3.729
X-5.659 Y3.228 Z3.554
X-5.659 Y3.626 Z3.336
X-5.659 Y3.924 Z3.139
X-5.659 Y4.222 Z2.913
X-5.659 Y4.52 Z2.644
X-5.659 Y4.818 Z2.311
X-5.659 Y5.016 Z2.042
X-5.659 Y5.116 Z1.886
X-5.659 Y5.215 Z1.706
X-5.659 Y5.414 Z1.265 F100
X-5.659 Y5.513 Z0.965
X-5.659 Y5.712 Z0
X-5.659 Y5.911 Z0 F199.99
X-5.46 Y5.911 Z0
X-5.261 Y5.911 Z0.898 F100
X-5.162 Y5.911 Z1.195
X-5.063 Y5.911 Z1.436
X-4.963 Y5.911 Z1.645
X-4.765 Y5.911 Z1.971 F199.99
X-4.566 Y5.911 Z2.238
X-4.268 Y5.911 Z2.56
X-4.069 Y5.911 Z2.748
X-3.771 Y5.911 Z2.979
X-3.374 Y5.911 Z3.241
X-2.977 Y5.911 Z3.449
X-2.48 Y5.911 Z3.653
X-2.083 Y5.911 Z3.784
X-1.586 Y5.911 Z3.901
X-1.189 Y5.911 Z3.975
X-0.692 Y5.911 Z4.032
X-0.195 Y5.911 Z4.061
X0.4 Y5.911 Z4.053
X0.996 Y5.911 Z4.002
X1.393 Y5.911 Z3.941
X1.89 Y5.911 Z3.832
X2.188 Y5.911 Z3.752
X2.684 Y5.911 Z3.574
X3.082 Y5.911 Z3.398
X3.38 Y5.911 Z3.238
X3.777 Y5.911 Z2.975
X4.075 Y5.911 Z2.738
X4.373 Y5.911 Z2.454
X4.472 Y5.911 Z2.348
X4.77 Y5.911 Z1.957
X4.87 Y5.911 Z1.814
X5.068 Y5.911 Z1.443
X5.168 Y5.911 Z1.193 F100
X5.267 Y5.911 Z0.884
X5.366 Y5.911 Z0.372
X5.466 Y5.911 Z0
X6.36 Y5.911 Z0 F199.99
X7.36 Y6.911 Z0
X7.36 Y3.132 Z0
X7.36 Y3.033 Z0.606 F100
X7.36 Y2.933 Z0.852
X7.36 Y2.834 Z1.056
X7.36 Y2.535 Z1.45 F199.99
X7.36 Y2.237 Z1.718
X7.36 Y1.939 Z1.932
X7.36 Y1.64 Z2.088
X7.36 Y1.243 Z2.25
X7.36 Y0.745 Z2.374
X7.36 Y0.547 Z2.407
X7.36 Y-0.049 Z2.444
X7.36 Y-0.646 Z2.394
X7.36 Y-1.143 Z2.281
X7.36 Y-1.342 Z2.211
X7.36 Y-1.739 Z2.042
X7.36 Y-1.938 Z1.932
X7.36 Y-2.237 Z1.718
X7.36 Y-2.535 Z1.45
X7.36 Y-2.833 Z1.057
X7.36 Y-2.933 Z0.853 F100
X7.36 Y-3.032 Z0.608
X7.36 Y-3.132 Z0
X7.36 Y-7.01 Z0 F199.99
X3.88 Y-7.01 Z0
X3.78 Y-7.01 Z0.53 F100
X3.681 Y-7.01 Z0.873
X3.482 Y-7.01 Z1.301
X3.084 Y-7.01 Z1.815 F199.99
X2.786 Y-7.01 Z2.081
X2.488 Y-7.01 Z2.299
X2.189 Y-7.01 Z2.472
X1.792 Y-7.01 Z2.655
X1.394 Y-7.01 Z2.782
X0.897 Y-7.01 Z2.905
X0.599 Y-7.01 Z2.95
X0.002 Y-7.01 Z2.984
X-0.295 Y-7.01 Z2.973
X-0.693 Y-7.01 Z2.939
X-1.19 Y-7.01 Z2.845
X-1.588 Y-7.01 Z2.727
X-1.986 Y-7.01 Z2.573
X-2.383 Y-7.01 Z2.36
X-2.681 Y-7.01 Z2.166
X-2.98 Y-7.01 Z1.917
X-3.179 Y-7.01 Z1.712
X-3.477 Y-7.01 Z1.293
X-3.676 Y-7.01 Z0.886 F100
X-3.775 Y-7.01 Z0.571
X-3.875 Y-7.01 Z0
X-6.659 Y-7.01 Z0 F199.99
X-6.659 Y-4.524 Z0
X-6.659 Y-4.424 Z0.034
X-6.659 Y-4.325 Z0.722 F100
X-6.659 Y-4.225 Z1.018
X-6.659 Y-4.126 Z1.261
X-6.659 Y-3.927 Z1.597 F199.99
X-6.659 Y-3.828 Z1.744
X-6.659 Y-3.529 Z2.096
X-6.659 Y-3.43 Z2.194
X-6.659 Y-2.933 Z2.589
X-6.659 Y-2.634 Z2.771
X-6.659 Y-2.137 Z3.003
X-6.659 Y-1.839 Z3.111
X-6.659 Y-1.441 Z3.232
X-6.659 Y-1.043 Z3.316
X-6.659 Y-0.646 Z3.369
X-6.659 Y-0.148 Z3.404
X-6.659 Y0.248 Z3.398
X-6.659 Y0.845 Z3.346
X-6.659 Y1.243 Z3.278
X-6.659 Y1.541 Z3.206
X-6.659 Y2.038 Z3.04
X-6.659 Y2.336 Z2.918
X-6.659 Y2.734 Z2.711
X-6.659 Y3.033 Z2.521
X-6.659 Y3.43 Z2.194
X-6.659 Y3.53 Z2.095
X-6.659 Y3.828 Z1.744
X-6.659 Y4.027 Z1.438
X-6.659 Y4.126 Z1.26
X-6.659 Y4.226 Z1.017 F100
X-6.659 Y4.325 Z0.721
X-6.659 Y4.425 Z0.028
X-6.659 Y4.524 Z0 F199.99
X-6.659 Y6.911 Z0
X-4.073 Y6.911 Z0
X-3.974 Y6.911 Z0.467 F100
X-3.875 Y6.911 Z0.866
X-3.676 Y6.911 Z1.29
X-3.377 Y6.911 Z1.719 F199.99
X-3.278 Y6.911 Z1.834
X-2.98 Y6.911 Z2.114
X-2.781 Y6.911 Z2.277
X-2.483 Y6.911 Z2.472
X-2.184 Y6.911 Z2.635
X-1.886 Y6.911 Z2.762
X-1.389 Y6.911 Z2.932
X-0.892 Y6.911 Z3.04
X-0.295 Y6.911 Z3.104
X0.002 Y6.911 Z3.112
X0.499 Y6.911 Z3.091
X1.096 Y6.911 Z2.999
X1.394 Y6.911 Z2.93
X1.692 Y6.911 Z2.838
X1.991 Y6.911 Z2.721
X2.388 Y6.911 Z2.528
X2.687 Y6.911 Z2.342
X2.985 Y6.911 Z2.119
X3.184 Y6.911 Z1.936
X3.482 Y6.911 Z1.58
X3.681 Y6.911 Z1.274
X3.88 Y6.911 Z0.806 F100
X3.979 Y6.911 Z0.445
X4.078 Y6.911 Z0
X7.36 Y6.911 Z0 F199.99
X8.36 Y7.911 Z0
X8.36 Y-8.011 Z0
X-7.659 Y-8.011 Z0
X-7.659 Y-2.338 Z0
X-7.659 Y-2.239 Z0.405 F100
X-7.659 Y-2.04 Z0.851
X-7.659 Y-1.94 Z0.965 F199.99
X-7.659 Y-1.642 Z1.259
X-7.659 Y-1.542 Z1.34
X-7.659 Y-1.343 Z1.458
X-7.659 Y-1.045 Z1.606
X-7.659 Y-0.945 Z1.647
X-7.659 Y-0.647 Z1.728
X-7.659 Y-0.448 Z1.771
X-7.659 Y-0.149 Z1.796
X-7.659 Y0.348 Z1.784
X-7.659 Y0.547 Z1.751
X-7.659 Y0.845 Z1.677
X-7.659 Y0.945 Z1.647
X-7.659 Y1.243 Z1.513
X-7.659 Y1.542 Z1.34
X-7.659 Y1.641 Z1.259
X-7.659 Y1.94 Z0.966
X-7.659 Y2.039 Z0.852
X-7.659 Y2.238 Z0.408 F100
X-7.659 Y2.338 Z0
X-7.659 Y7.911 Z0 F199.99
X-1.191 Y7.911 Z0
X-1.092 Y7.911 Z0.315 F100
X-0.992 Y7.911 Z0.491 F199.99
X-0.793 Y7.911 Z0.652
X-0.594 Y7.911 Z0.791
X-0.395 Y7.911 Z0.858
X-0.097 Y7.911 Z0.918
X0.002 Y7.911 Z0.926
X0.101 Y7.911 Z0.92
X0.4 Y7.911 Z0.857
X0.599 Y7.911 Z0.789
X0.897 Y7.911 Z0.573
X0.997 Y7.911 Z0.487
X1.096 Y7.911 Z0.265 F100
X1.196 Y7.911 Z0
X8.36 Y7.911 Z0 F199.99
G00 Z5
Z5
T0 M06 M02

